packages/gestalt-icons-android/vr-theme/ic_vr_tag_gestalt.svg

<svg width="24" height="24" viewBox="0 0 24 24" fill="none" xmlns="http://www.w3.org/2000/svg">
<path d="M15.9995 10C17.1041 10 17.9995 9.10457 17.9995 8C17.9995 6.89543 17.1041 6 15.9995 6C14.895 6 13.9995 6.89543 13.9995 8C13.9995 9.10457 14.895 10 15.9995 10Z" fill="black"/>
<path fill-rule="evenodd" clip-rule="evenodd" d="M12.2422 1C11.1813 1 10.1639 1.42143 9.41376 2.17157L1.41376 10.1716C-0.148335 11.7337 -0.148339 14.2663 1.41376 15.8284L8.17112 22.5858C9.73321 24.1479 12.2659 24.1479 13.828 22.5858L21.828 14.5858C22.5781 13.8356 22.9995 12.8182 22.9995 11.7574V5C22.9995 2.79086 21.2087 1 18.9995 1H12.2422ZM10.828 3.58579C11.203 3.21071 11.7118 3 12.2422 3H18.9995C20.1041 3 20.9995 3.89543 20.9995 5V11.7574C20.9995 12.2878 20.7888 12.7965 20.4138 13.1716L12.4138 21.1716C11.6327 21.9526 10.3664 21.9526 9.58533 21.1716L2.82797 14.4142C2.04693 13.6332 2.04693 12.3668 2.82798 11.5858L10.828 3.58579Z" fill="black"/>
</svg>

<svg xmlns="http://www.w3.org/2000/svg" width="24" height="24"><path d="M16 10a2 2 0 1 0 0-4 2 2 0 0 0 0 4m-3.76-9a4 4 0 0 0-2.83 1.17l-8 8a4 4 0 0 0 0 5.66l6.76 6.76a4 4 0 0 0 5.66 0l8-8A4 4 0 0 0 23 11.76V5a4 4 0 0 0-4-4zm-1.41 2.59A2 2 0 0 1 12.24 3H19a2 2 0 0 1 2 2v6.76a2 2 0 0 1-.59 1.41l-8 8a2 2 0 0 1-2.82 0l-6.76-6.76a2 2 0 0 1 0-2.82z"/></svg>
